X:1
T:Oh, Let Us Be Glad
T:T. Frank Allen
T:Oh, Let Us Be Glad
T:Public Domain
T:Public Domain
C:T. Frank Allen
Z:Public Domain
%%score ( 1 2 ) ( 3 4 )
L:1/8
M:3/4
K:Bb
V:1 treble 
V:2 treble 
V:3 bass 
V:4 bass 
V:1
 (3(FGA) x | B2 D2 F2 | [DB]4 [FB][Fc] | [Fd]2 [Fc]2 [FB]2 | [EG]4 [EG]2 | [EG]2 [Gc]2 [Gd]2 | %6
w: 1.~Oh, * *|glad in our|king, No tongues|ev- er had|great- er|rea- son to|
w: 2.~His * *|name makes our|sure, We share|in His fame|which shall|ev- er en-|
w: 3.~We * *|name, th- ro’|tears, His love|all the same|hath en-|com- passed our|
 [Ge]4 [Gc][GB] | [FA]2 [GB]2 [=EG]2 | F4 F2 | F2 [FA]2 [Fc]2 | [Fe]4 [Fc][FA] | %11
w: sing; Our hearts|we will raise|with our|in song, And|Him the praise,|
w: dure; On earth|we’ve His Word|and the|His love; The|of the Lord|
w: years; Oh, who|could be sad|when thus|His care? Come,|us be glad,|
 [FB]2 [FB]2 [Fc]2 | [Fd]4 [Fd]2 | [Fd]2 [Fc]2 [Fd]2 | [Ee]2 [EG]2 [Ec]2 | [DB]2 [Fd]2 [Ec]2 | %16
w: to whom prais-|es be-|long. Be glad,|be glad, Oh,|let us be|
w: yet a- waits|us a-|bove. * *|||
w: and God’s good-|ness de-|clare. * *|||
 [DB]4 ||"^Refrain" [DF]2 | ([EA]6- | A2 G2) [EF]2 | ([DB]6- | [DB]2 [EA]2) [FB]2 | %22
w: glad|in|our||Lift|* * up|
w: ||||||
w: ||||||
 [Fc]2 [Fc]2 [Fc]2 | [Fc]2 [FB]2 [Fc]2 | [Fd]6- | [Fd]4 [DF]2 | [DF]2 ([C=E][DF]) ([_EG][DF]) | %27
w: hap- py voic-|es and praise|Him,|* Till|space with * His *|
w: |||||
w: |||||
 [Fd]2 [Fc]2 [FB]2 | [Ec]6 | [EG]4 [EG]2 | [DF]2 [DB]2 [DB]2 | [Ec]2 [Fd]2 [Ec]2 | D2 F2 E2 | %33
w: prais- es shall|ring.|||||
w: ||||||
w: ||||||
 [DB]4 |] %34
w: |
w: |
w: |
V:2
 FG A | B2 D2 F2 | x6 | x6 | x6 | x6 | x6 | x6 | F4 F2 | F2 x4 | x6 | x6 | x6 | x6 | x6 | x6 | %16
w: let us be|Sav- ior and|||||||voic- es|give|||||||
w: won- der- ful|vic- to- ry|||||||gift of|joy|||||||
w: bless His dear|smiles and thro’|||||||held in|let|||||||
 x4 || x2 | x6 | E4 x2 | x6 | x6 | x6 | x6 | x6 | x6 | x6 | x6 | x6 | x6 | x6 | x6 | B6- | x4 |] %34
w: |||king;|||||||||||||||
w: ||||||||||||||||||
w: ||||||||||||||||||
V:3
 (3(F,G,A,) x | B,2 D,2 F,2 | [B,,F,]4 [D,B,][F,A,] | B,2 [F,A,]2 [D,B,]2 | [E,B,]4 [E,B,]2 | %5
w: ~ * *|~ ~ ~|~ ~ ~|~ ~ ~|~ ~|
 [C,C]2 [E,C]2 [D,=B,]2 | [C,C]4 [E,C][=E,C] | [F,C]2 [C,C]2 [C,B,]2 | [F,A,]4 [F,A,]2 | %9
w: ~ ~ ~|~ ~ ~|~ ~ ~|~ ~|
 [F,A,]2 [F,C]2 [F,A,]2 | [F,C]4 [F,A,][E,C] | [D,B,]2 [D,B,]2 [C,A,]2 | [B,,B,]4 B,2 | %13
w: ~ ~ ~|~ ~ ~|~ ~ ~|~ ~|
 B,2 [A,C]2 [_A,B,]2 | [G,B,]2 [E,B,]2 [E,G,]2 | F,2 [F,B,]2 [F,,A,]2 | [B,,B,]4 || [B,,B,]2 | %18
w: ~ ~ Be|oh, be glad,|Be glad, oh,|glad,|~|
 [F,C]2 [F,C]2 [F,C]2 | C2 B,2 [F,A,]2 | [B,,B,]2 [B,,F,]2 [B,,F,]2 | B,,2 C,2 [D,B,]2 | %22
w: ~ ~ ~|~ ~ ~|~ ~ in|our King, ~|
 [F,A,]2 [F,A,]2 [F,A,]2 | [E,A,]2 [D,B,]2 [C,A,]2 | [B,,B,]2 [D,B,]2 [F,B,]2 | B,4 [B,,B,]2 | %26
w: ~ ~ ~|~ ~ ~|~ ~ ~|~ ~|
 [B,,B,]2 [B,,B,]2 [B,,B,]2 | [B,,B,]2 [C,A,]2 [D,B,]2 | [E,G,]6 | [E,B,]4 [E,B,]2 | %30
w: ~ His prais-|es shall ring.|||
 [F,B,]2 [F,B,]2 [F,B,]2 | [F,,A,]2 [F,,A,]2 [F,,A,]2 | B,2 A,2 G,2 | [B,,F,]4 |] %34
w: ||||
V:4
 F,G, A, | B,2 D,2 F,2 | x6 | B,2 x4 | x6 | x6 | x6 | x6 | x6 | x6 | x6 | x6 | x4 B,2 | B,2 x4 | %14
w: ~ ~ ~|~ ~ ~||~|||||||||~|glad,|
 x6 | F,2 x4 | x4 || x2 | x6 | F,4 x2 | x6 | F,4 x2 | x6 | x6 | x6 | B,4 x2 | x6 | x6 | x6 | x6 | %30
w: |be||||~||~||||~|||||
 x6 | x6 | B,,6- | x4 |] %34
w: ||||

